icons/System/external-link-fill.svg

<svg viewBox="0 0 24 24" xmlns="http://www.w3.org/2000/svg"><path d="M10 6V8H5V19H16V14H18V20C18 20.5523 17.5523 21 17 21H4C3.44772 21 3 20.5523 3 20V7C3 6.44772 3.44772 6 4 6H10ZM21 3V12L17.206 8.207L11.2071 14.2071L9.79289 12.7929L15.792 6.793L12 3H21Z"/></svg>

<svg xmlns="http://www.w3.org/2000/svg" viewBox="0 0 24 24">
    <g>
        <path fill="none" d="M0 0h24v24H0z"/>
        <path d="M10 6v2H5v11h11v-5h2v6a1 1 0 0 1-1 1H4a1 1 0 0 1-1-1V7a1 1 0 0 1 1-1h6zm11-3v9l-3.794-3.793-5.999 6-1.414-1.414 5.999-6L12 3h9z"/>
    </g>
</svg>
